dist/img/svg/horse_icon.svg

<svg xmlns="http://www.w3.org/2000/svg" viewBox="0 0 137.24 137.25"><path d="M68.8 117.2c19.93 0 39.82-5.57 60.8-17.03l1.48-.81v18.07l-.57.28c-18.25 8.74-39.66 13.36-61.93 13.36-22.26 0-43.65-4.62-61.86-13.36l-.57-.27V99.33l1.48.8c21.25 11.49 41.26 17.07 61.17 17.07m26.92-9.74l-.75.19c-8.71 2.26-17.49 3.41-26.11 3.41-5.57 0-11.24-.48-16.85-1.42l-.84-.13v-2.89c0-12.18 9.98-22.1 22.24-22.1 12.29 0 22.3 9.95 22.31 22.17zM34.98 52.33c.21-1.46-.65-2.86-2.04-3.35-1.31-.45-2.49-.84-3.57-1.2-5.74-1.91-8.9-2.96-11.31-6.67-1.18-1.85-1.45-4.11-.74-6.22A7.653 7.653 0 0122 30.16l23.13-8.22c1.41-.5 2.77-2.27 2.59-4.35L47.1 6.94l1.45.58c10.9 4.27 21.49 11.06 21.03 42.3-.02.83.3 1.61.88 2.21.59.59 1.36.92 2.19.92h35.32c2.23 0 4.15 1.65 4.47 3.84l6.12 42.12-.67.32c-4.96 2.34-9.94 4.36-14.8 6l-1.21.41-.1-1.28c-1.18-14.58-13.64-26-28.37-26-15.92 0-28.4 12.57-28.4 28.61v1.27l-1.23-.3c-5.02-1.24-10.17-2.88-15.3-4.88l-.74-.29zM5.8 92.9c-2.79 0-5.8 2.22-5.8 5.79v18.98c0 2.19 1.27 4.23 3.25 5.2 19.23 9.4 41.83 14.38 65.34 14.38h.01c23.49 0 46.1-4.98 65.38-14.38 1.98-.97 3.26-3.01 3.26-5.2V98.72c0-3.57-3.01-5.79-5.81-5.79-.99 0-1.95.26-2.84.76-1 .56-1.99 1.1-2.97 1.63l-1.26.68-5.82-40.1c-.76-5.2-5.31-9.11-10.57-9.11H75.75l-.02-.99c-.26-14.84-3.22-25.64-9.06-33.03C60.8 5.35 52.99 2.53 46.72.26c-1.48-.52-3.06-.26-4.25.69a4.402 4.402 0 00-1.67 3.83l.69 11.92-21.55 7.66c-4 1.42-7.07 4.53-8.44 8.53-1.33 3.91-.83 8.12 1.39 11.56 3.61 5.57 8.53 7.2 14.77 9.26l.11.04.74.29-6.64 46.26-1.22-.55c-3.94-1.81-7.99-3.86-12.03-6.1-.88-.5-1.83-.75-2.82-.75"/></svg>

<svg xmlns="http://www.w3.org/2000/svg" viewBox="0 0 137.24 137.25">
	<style type="text/css">
		.st0{fill:#000000;}
	</style>
	<path class="st0" d="M68.8,117.2C88.73,117.2 108.62,111.63 129.6,100.17L131.08,99.36L131.08,117.43L130.51,117.71C112.26,126.45 90.85,131.07 68.58,131.07C46.32,131.07 24.93,126.45 6.72,117.71L6.15,117.44L6.15,99.33L7.63,100.13C28.88,111.62 48.89,117.2 68.8,117.2M95.72,107.46L94.97,107.65C86.26,109.91 77.48,111.06 68.86,111.06C63.29,111.06 57.62,110.58 52.01,109.64L51.17,109.51L51.17,106.62C51.17,94.44 61.15,84.52 73.41,84.52C85.7,84.52 95.71,94.47 95.72,106.69ZM34.98,52.33C35.19,50.87 34.33,49.47 32.94,48.98C31.63,48.53 30.45,48.14 29.37,47.78C23.63,45.87 20.47,44.82 18.06,41.11C16.88,39.26 16.61,37 17.32,34.89C18.08,32.68 19.79,30.95 22,30.16L45.13,21.94C46.54,21.44 47.9,19.67 47.72,17.59L47.1,6.94L48.55,7.52C59.45,11.79 70.04,18.58 69.58,49.82C69.56,50.65 69.88,51.43 70.46,52.03C71.05,52.62 71.82,52.95 72.65,52.95L107.97,52.95C110.2,52.95 112.12,54.6 112.44,56.79L118.56,98.91L117.89,99.23C112.93,101.57 107.95,103.59 103.09,105.23L101.88,105.64L101.78,104.36C100.6,89.78 88.14,78.36 73.41,78.36C57.49,78.36 45.01,90.93 45.01,106.97L45.01,108.24L43.78,107.94C38.76,106.7 33.61,105.06 28.48,103.06L27.74,102.77ZM5.8,92.9C3.01,92.9 0,95.12 0,98.69L0,117.67C0,119.86 1.27,121.9 3.25,122.87C22.48,132.27 45.08,137.25 68.59,137.25L68.6,137.25C92.09,137.25 114.7,132.27 133.98,122.87C135.96,121.9 137.24,119.86 137.24,117.67L137.24,98.72C137.24,95.15 134.23,92.93 131.43,92.93C130.44,92.93 129.48,93.19 128.59,93.69C127.59,94.25 126.6,94.79 125.62,95.32L124.36,96L118.54,55.9C117.78,50.7 113.23,46.79 107.97,46.79L75.75,46.79L75.73,45.8C75.47,30.96 72.51,20.16 66.67,12.77C60.8,5.35 52.99,2.53 46.72,0.26C45.24,-0.26 43.66,0 42.47,0.95C41.3,1.87 40.68,3.3 40.8,4.78L41.49,16.7L19.94,24.36C15.94,25.78 12.87,28.89 11.5,32.89C10.17,36.8 10.67,41.01 12.89,44.45C16.5,50.02 21.42,51.65 27.66,53.71L27.77,53.75L28.51,54.04L21.87,100.3L20.65,99.75C16.71,97.94 12.66,95.89 8.62,93.65C7.74,93.15 6.79,92.9 5.8,92.9"/>
</svg>
